src/24/actions/view-right-new.svg

<svg xmlns="http://www.w3.org/2000/svg" viewBox="0 0 24 24"><path d="M4 4v16h16V4H4zm1 4h4v11H5V8zm5 0h9v11h-9V8zm4 3v2h-2v1h2v2h1v-2h2v-1h-2v-2h-1z" fill="currentColor" color="#5d656b"/></svg>

<svg xmlns="http://www.w3.org/2000/svg" viewBox="0 0 24 24">
  <defs id="defs3051">
    <style type="text/css" id="current-color-scheme">
      .ColorScheme-Text {
        color:#5d656b;
      }
      </style>
  </defs>
 <path style="fill:currentColor;fill-opacity:1;stroke:none" 
     d="M 4 4 L 4 20 L 20 20 L 20 4 L 4 4 z M 5 8 L 9 8 L 9 19 L 5 19 L 5 8 z M 10 8 L 19 8 L 19 19 L 10 19 L 10 8 z M 14 11 L 14 13 L 12 13 L 12 14 L 14 14 L 14 16 L 15 16 L 15 14 L 17 14 L 17 13 L 15 13 L 15 11 L 14 11 z "
     class="ColorScheme-Text"
     />
</svg>
